icons/global/user-settings/billing.svg

<svg width="24" height="24" viewBox="0 0 24 24" fill="none" xmlns="http://www.w3.org/2000/svg">
<path d="M22 9V19C22 20.1 21.1818 21 20.1818 21H3.81818C2.81818 21 2 20.1 2 19V6C2 4.34 3.21818 3 4.72727 3H18.3636C19.3636 3 20.1818 3.9 20.1818 5H4.72727C4.22727 5 3.81818 5.45 3.81818 6C3.81818 6.55 4.22727 7 4.72727 7H20.1818C21.1818 7 22 7.9 22 9ZM20.1818 12H16.5455C15.5455 12 14.7273 12.9 14.7273 14C14.7273 15.1 15.5455 16 16.5455 16H20.1818V12Z" fill="black"/>
</svg>

<svg xmlns="http://www.w3.org/2000/svg" width="24" height="24" fill="none">
  <path fill="#000" d="M22 9v10c0 1.1-.818 2-1.818 2H3.818C2.818 21 2 20.1 2 19V6c0-1.66 1.218-3 2.727-3h13.637c1 0 1.818.9 1.818 2H4.727c-.5 0-.909.45-.909 1s.41 1 .91 1h15.454c1 0 1.818.9 1.818 2Zm-1.818 3h-3.636c-1 0-1.819.9-1.819 2s.819 2 1.819 2h3.636v-4Z"/>
</svg>
